X:5681
T:Gan Ainm
R:Reel
S:Unknown Fiddle
H:
N:
D:Radio Clare Broadcast
Z:Adrian Scahill
M:4/4
L:1/8
K:D
AFF2 GFEF|DB,A,B, DEFD|EBB2 dBAc|(3dcB cA BFAF|\
DFF2 BFAF|DEFD EB,B,2|D2dA BdAF|DEE2 D4:||\
FBB2 BAFE|DE (3FED A,DFA|Bee2 edBA|FABc dcde|\
fdd2 cdBd|AFF2 EDCE|D2dA BdAF|DEE2 D4:||
